!! 00000] TT[WS
!!!OTL: Xiaoguafu shangfen
!!!ARE: Asia, China, Shanxi Qinyuan
!! Ethnic Group: Han
!! WII, 155 (1)
!!!SCT: J0636
!!!YEM: Copyright 1995, estate of Helmut Schaffrath.
**kern
*ICvox
*Ivox
*M2/4
*k[f#c#g#]
*A:
{8e
8cc#
8b
16a
16f#
=1
16a
8e
16d#
4e}
=2
{8e
8cc#
8b
16a
16f#
=3
16a
8e
16d#
4e}
=4
{8e
8a
16b
16cc#
16b
16a
=5
8a
8g#
16f#
16r
16e
16c#}
=6
{16B
16c#
8e
8e
8c#
=7
8e
16B
16c#
4A}
==
!!!AGN: Xiaodiao. Qingge, Aisu
!!!ONB: ESAC (Essen Associative Code) Database: CHINA
!!!AMT: simple duple
!!!AIN: vox
!!!EED: Helmut Schaffrath
!!!EEV: 1.0
*-
